X:1
T:Title
%%score { ( 1 4 5 ) | ( 2 3 ) }
L:1/8
Q:1/4=100
M:2/4
K:C
V:1 treble nm="Grand Piano"
V:4 treble 
V:5 treble 
V:2 bass 
V:3 bass 
V:1
 [CE]2 [EG]>[FA] | [EG]4 | [G,CE][EG] [Ec][Fd] | [Ec]4 | [Fc]>[FB] d2 | A>G B2 | F>E A>G | [EG]4 | %8
w: F.~von~Flotow * *||||||||
 [CE]2 [EG]>[FA] | [DG]4 | [CE][CA] cd | c4 | c2 BA | G^F .=F>[K:bass]F, | C4 | [Ec]4 | %16
w: ||||||||
 [Fc]2 [FB]2 | [FA]4 | [EA]2 [EG]2 | z C z c | [Ec]4 | [DG]4 | [CE]4 | [CGc] [Ge]2 [Gd] | c2 B2 | %25
w: |||||||||
 A [Ac]2 [GB] | [FA]2 [EG]2 | ^F3 c | c3 c | c3 c | c4 | e4 | dc BA | %33
w: ||||||||
[M:19/32] z/4 z/4 z/4 z/4 z/4 z/4 z/ f/4-f/4-f/4-f/4-f/4-f/4-f/-<f/ z/4 |[M:2/4] [Ec]4 |] %35
w: ||
V:2
 [C,G,]2 [C,C]>[C,C] | [C,C]4 | z C [C,G,][C,G,] | [C,G,]4 | [D,G,]>[D,G,][K:treble] [G,B,F]2 | %5
 [G,B,F]>[G,B,F] [G,DF]2 | [G,B,D]>[G,B,D] [G,B,F]>[K:bass][G,B,E] | [C,C]4 | %8
 [C,G,]2 [C,G,]>[C,G,] | [B,,G,]4 | [A,,A,][A,,A,] [A,CE][A,CE] | [G,CE]4 | %12
 [^F,A,_E]2 [F,B,E][F,CE] | [G,CE][G,C_E] [G,B,D].[G,,G,] | [C,E,]4 | [C,G,]C, C,[C,G,] | %16
 [D,G,]2 [D,G,]2 | [G,B,]G, G,[G,B,D] | [C,C]2 [C,C]2 | [A,C]A, z[K:treble] F | G,G, z E | %21
 G,G, G,G, | C,C, C,2 | E, [E,C]2 [E,C] | [G,DF]2 [G,DF]2 | [G,DF] [G,D]2 [G,D] | [C,C]2 [C,C]2 | %27
 [A,C]3 [A,_E^F] | [A,_EF]3 [A,EF] | [A,_E^F]3 [A,EF] | [A,_E^F]4 | [G,CEG]4 | %32
 [G,CE][G,CE] [G,CE][G,CE] | %33
[M:19/32] [G,B,F]/4-[G,B,F]/4-[G,B,F]/4-[G,B,F]/4-[G,B,F]/-<[G,B,F]/[G,F]/4-[G,F]/4-[G,F]/4-[G,F]/4-[G,F]/-<[G,F]/[G,DF]3/4 | %34
[M:2/4][K:bass] [C,G,C]4 |] %35
V:3
 x4 | x4 | C,2 z2 | x4 | x2[K:treble] x2 | x4 | x7/2[K:bass] x/ | x4 | x4 | x4 | x4 | x4 | x4 | %13
 x4 | x4 | x4 | x4 | x4 | x4 | z2 A,2[K:treble] | z2 G,2 | x4 | x4 | x4 | x4 | x4 | x4 | x4 | x4 | %29
 x4 | x4 | x4 | x4 | %33
[M:19/32] z/4 z/4 z/4 z/4 z/4 z/4 z/ B,/4-B,/4-B,/4-B,/4-B,/4-B,/4-B,/-<B,/ z/4 | %34
[M:2/4][K:bass] x4 |] %35
V:4
 x4 | x4 | x4 | x4 | x4 | x4 | x4 | x4 | x4 | x4 | x4 | x4 | x4 | z2 z[K:bass] [B,D] | x4 | %15
 z G, G,[Ed] | x4 | z B, B,F | x4 | F4 | CC C2 | B,B, B,[B,DF] | .G,2 G,2 | x4 | x4 | x4 | x4 | %27
 x4 | x4 | x4 | x4 | x4 | x4 |[M:19/32] G/4-G/4-G/4-G/4-G/-<G/ z/4 z/4 z/4 z/4 z/4 z/4 z/ B3/4 | %34
[M:2/4] x4 |] %35
V:5
 x4 | x4 | x4 | x4 | x4 | x4 | x4 | x4 | x4 | x4 | x4 | x4 | x4 | x3[K:bass] x | x4 | x4 | x4 | %17
 x4 | x4 | z2 C2 | x4 | x4 | x4 | x4 | x4 | x4 | x4 | x4 | x4 | x4 | x4 | x4 | x4 | %33
[M:19/32] x19/4 |[M:2/4] x4 |] %35

